X:1
L:1/8
M:6/8
K:A
"^Slowly" e | (c>B)A a>gf | (fe)c c2 e | (fe)c cef | (ec)B B2 e | (c>B)A a>gf | (fe)c c2 e | 
 (fe)c (B>c)B | A>BA A2 :: c | A2 B (cBA) | (cef) e2 f | (e>c)c cef | (e>B)B B2 c | A2 B (cBA) | 
 (c>e)f e2 f | ecA (Bc)B | A>BA A2 :| </s><end_of_turn>
<start_of_turn>model
Sure, here is the extracted motif in ABC format:

